X: 38942
T: Suspended Slip Jig
R: slip jig
M: 9/8
K: Gmajor
|:"D"FGAd2"G"d ABG|"C"c2BG2"G"d "C"cBG|
"D"DFG AD"G"d AB"G"G|dB"C"c ABG "Em (1st time only)"EFG:|
"Em"ABG E2"C"c BGE|"D"F2d- dAG "Bm"FGA|
"Em"B2e "C"cBG ABG|"D"A2D dAG "Bm"FGA|
"Em"ABG E2"C"e cBG|"D"F2d d2"Bm"g fdB|
"C"e2B AB"D"d "G"GFD|"C"E2c BG"C/D"A- A2G||

